!!!!SEGMENT: pl-sa--43-a-i-43--001_pokorny-franz-xaver--litania-kyrie-eleison.krn
!!!cenid: 17xx:1428
!!!COM: Pokorný, Franz Xaver
!!!COM-rismID:
!!!CDT: 1729/12/20-1794/07/02
!!!CNT: Czech
!!!OPR: Litania
!!!OTL: Kyrie eleison
!!!OMV: 001
!!!PDT:
!!!AGN: Sacred; Mass
!!!SMS-siglum: PL-SA
!!!SMS-shelfmark: 43/A I 43
!!!SMS-shelfwork: 001-001 M
!!!SMS-variant:
!!!SMS-altvar:
!!!NIFC-rismSourceID: 1001038849
!!!NIFC-islandoraID:
!!!URL-pdf-islandora:
!!!URL-scan: https://bc.bdsandomierz.pl/dlibra/publication/1289/edition/1257/content @EN{Scan on Cyfrowa Biblioteka Diecezjalna w Sandomierzu} @PL{Skany w portalu Cyfrowa Biblioteka Diecezjalna w Sandomierzu}
!!!ONB-nifc: UWAGA: części Litanii: 1. Kyrie eleison, 2. Mater Christi, 3. Virgo potens, 4. Rosa mystica, 5. Salus infirmorum, 6. Regina angelorum, 7. Agnus Dei
!!!AIN: 1 alto 3 empty 1 organ 1 tenor 2 violn 1 vox
!!!key:
**kern	**dynam	**kern	**dynam	**kern	**dynam	**kern	**text	**kern	**text	**kern	**text	**kern	**text	**dynam	**kern	**kern
*part9	*part9	*part8	*part8	*part7	*part7	*part6	*part6	*part5	*part5	*part4	*part4	*part3	*part3	*part3	*part2	*part1
*staff9	*	*staff8	*	*staff7	*	*staff6	*staff6	*staff5	*staff5	*staff4	*staff4	*staff3	*staff3	*	*staff2	*staff1
*Iorgan	*	*Ivioln	*	*Ivioln	*	*Iempty	*	*Itenor	*	*Ialto	*	*Ivox	*	*	*Iempty	*Iempty
*I"Organo	*	*I"Violino 2do	*	*I"Violino Imo	*	*I"Baſso.	*	*I"Tenore	*	*I"Alto	*	*I"Canto	*	*	*I"Cornu 2do: in D.	*I"Cornu 1mo in D.
*I'org	*	*I'vl 2	*	*I'vl 1	*	*I'B	*	*I'T	*	*I'A	*	*I'S	*	*	*I'cor 2 in D	*I'cor 1 in D
*clefF4	*	*clefG2	*	*clefG2	*	*clefF4	*	*clefC4	*	*clefC3	*	*clefC1	*	*	*clefG2	*clefG2
*	*	*	*	*	*	*	*	*	*	*	*	*	*	*	*ITrd6c10	*ITrd6c10
*k[f#c#]	*	*k[f#c#]	*	*k[f#c#]	*	*k[f#c#]	*	*k[c#f#]	*	*k[c#f#]	*	*k[c#f#]	*	*	*k[f#c#]	*k[f#c#]
*D:	*	*D:	*	*D:	*	*D:	*	*D:	*	*D:	*	*D:	*	*	*D:	*D:
*M4/4	*	*M4/4	*	*M4/4	*	*M4/4	*	*M4/4	*	*M4/4	*	*M4/4	*	*	*M4/4	*M4/4
*met(c)	*	*met(c)	*	*met(c)	*	*met(c)	*	*met(c)	*	*met(c)	*	*met(c)	*	*	*met(c)	*met(c)
*	*	*	*	*	*below	*	*	*	*	*	*	*	*	*	*	*
=1	=1	=1	=1	=1	=1	=1	=1	=1	=1	=1	=1	=1	=1	=1	=1	=1
!LO:TX:a:B:t=Allo ri molto	!	!	!	!	!	!	!	!	!	!	!	!	!	!	!	!LO:TX:a:B:t=Allo ri molto
!LO:TX:a:i:t=Tutti	!	!LO:TX:a:B:t=Allo ri molto	!	!LO:TX:a:B:t=Allo ri molto	!	!LO:TX:a:B:t=Allo ri molto	!	!LO:TX:a:B:t=Allo ri molto	!	!LO:TX:a:B:t=Allo ri molto	!	!LO:TX:a:B:t=Allo ri molto	!	!	!LO:TX:a:B:t=Allo ri molto	!
!LO:TX:a:t=P:problem=mixed beam	!	!	!	!	!	!	!	!	!	!	!	!	!	!	!	!
8D/L	.	4d/	f	4d/	f	4d\	Ky-	4A\	Ky-	4f#\	Ky-	4dd\	Ky-	.	4D/	4D/
8d\	.	.	.	.	.	.	.	.	.	.	.	.	.	.	.	.
8D/	.	4d/	.	4d/	.	4d\	-ri-	4A\	-ri-	4f#\	-ri-	4dd\	-ri-	.	4D/	4D/
8d\J	.	.	.	.	.	.	.	.	.	.	.	.	.	.	.	.
4D/	.	16d/LL	.	16d/LL	.	4d\	-e	4A\	-e	4f#\	-e	4dd\	-e	.	4D/	4D/
.	.	32e/L	.	32e/L	.	.	.	.	.	.	.	.	.	.	.	.
.	.	32f#/	.	32f#/	.	.	.	.	.	.	.	.	.	.	.	.
.	.	32g/	.	32g/	.	.	.	.	.	.	.	.	.	.	.	.
.	.	32a/	.	32a/	.	.	.	.	.	.	.	.	.	.	.	.
.	.	32b/	.	32b/	.	.	.	.	.	.	.	.	.	.	.	.
.	.	32cc#/JJJ	.	32cc#/JJJ	.	.	.	.	.	.	.	.	.	.	.	.
!	!	!LO:TX:t=P:problem=mixed beam	!	!LO:TX:t=P:problem=mixed beam	!	!	!	!	!	!	!	!	!	!	!	!
4r	.	8dd\L	.	8dd\L	.	8r	.	8r	.	8r	.	8r	.	.	4r	4r
.	.	8d/J	.	8f#/J	.	8D\	E-	8A\	E-	8d\	E-	8f#/	E-	p	.	.
=2	=2	=2	=2	=2	=2	=2	=2	=2	=2	=2	=2	=2	=2	=2	=2	=2
*	*	*	*	*	*	*	*	*2\right	*	*	*	*	*	*	*	*
2r	.	8d/L	.	(8f#/L	p	2AA/	-lei-	2A\	-ley-	8d\L	-le-	8f#/L	-le-	.	2r	2r
.	.	8c#/	.	8e/)	.	.	.	.	.	8c#\J	-y-	8e/J	-i-	.	.	.
.	.	8c#/	.	8e/|	.	.	.	.	.	8c#\	-ſon	8e/	-ſon	.	.	.
*	*	*	*	*	*	*	*	*	*	*	*	*	*ij	*	*	*
.	.	8e/J	.	8g/J|	.	.	.	.	.	8e\	e-	8g/	e-	.	.	.
!	!	!LO:TX:t=P:problem=mixed beam	!	!LO:TX:t=P:problem=mixed beam	!	!	!	!	!	!	!	!	!	!	!	!
4r	.	8e/L	.	(8g/L	.	4D\	.	4A\	.	8e\L	-le-	8g/L	-le-	.	4r	4r
.	.	8d/	.	8f#/)	.	.	.	.	.	8d\J	-y-	8f#/J	-i-	.	.	.
8r	.	8d/	.	8f#/|	.	8D\	-ſon	8A\	-ſon	8d\	-ſon	8f#/	-ſon	.	8r	8r
*	*	*	*	*	*	*	*	*	*	*	*	*	*Xij	*	*	*
8d\	.	8dd\J	.	8ff#\J|	.	8d\	E-	8d\	E-	8a\	E-	8ff#\	E-	.	8d\	8g\
=3	=3	=3	=3	=3	=3	=3	=3	=3	=3	=3	=3	=3	=3	=3	=3	=3
4.A\	.	8dd\L	.	(8ff#\L	.	4A\	-ley-	8d\L	-ley-	4a\	-ley-	8ff#\L	-lei-	.	8d\L	8f#\L
.	.	8cc#\	.	8ee\)	.	.	.	8c#\J	.	.	.	8ee\J	.	.	8A\	8e\
.	.	8cc#\	.	8ee\|	.	8A\	-ſon	8c#\	-ſon	8a\	-ſon	8ee\	-ſon	.	8A\	8e\
*	*	*	*	*	*	*	*	*	*	*	*ij	*	*ij	*	*	*
8c#\	.	8ee\J	.	8gg\J|	.	8c#\	E-	8e\	E-	8a\	E-	8gg\	E-	.	8e\J	8g\J
4.d\	.	8ee\L	.	(8gg\L	.	4d\	-ley-	8e\L	-le-	4a\	-ley-	8gg\L	-le-	.	8e\L	8g\L
.	.	8dd\	.	8ff#\)	.	.	.	8d\J	-y-	.	.	8ff#\J	-i-	.	8d\J	8f#\J
.	.	8dd\	.	8ff#\|	.	8d\	-ſon	8d\	-ſon	8a\	-ſon	8ff#\	-ſon	.	4d\	4f#\
*	*	*	*	*	*	*	*	*	*	*	*Xij	*	*Xij	*	*	*
8F#\	.	8ff#\J	.	8aa\J|	.	8F#\	E-	8f#\	E-	8f#\	E-	8aa\	E-	.	.	.
!	!	!	!	!	!	!	!	!	!	!	!	!LO:LB:g=original	!	!	!	!
=4	=4	=4	=4	=4	=4	=4	=4	=4	=4	=4	=4	=4	=4	=4	=4	=4
4G\	.	16ff#\LL	.	(16aa\LL	.	4G\	-lei-	8.f#\L	-ley-	4b\	-ley-	8aa\L	-ley-	.	2r	2r
.	.	16ee\	.	16gg\)	.	.	.	.	.	.	.	.	.	.	.	.
.	.	16ee\	.	(16gg\	.	.	.	.	.	.	.	16gg\L	.	.	.	.
.	.	16dd\JJ	.	16ff#\JJ)	.	.	.	32e\LL	.	.	.	16ff#\JJ	.	.	.	.
.	.	.	.	.	.	.	.	32d\JJJ	.	.	.	.	.	.	.	.
.	.	.	.	.	.	.	.	8qqc#/	.	.	.	.	.	.	.	.
8G\L	.	16a/LL	.	(16ff#\LL	.	8G\L	.	4B\	.	16b\LL	.	16ff#\LL	.	.	.	.
.	.	16g/	.	16ee\)	.	.	.	.	.	16g\	.	16ee\	.	.	.	.
8G\J	.	16g/	.	16ee\|	.	8G#X\J	.	.	.	16g\	.	16ee\	.	.	.	.
.	.	16f#/JJ	.	16dd\JJ|	.	.	.	.	.	16f#\JJ	.	16dd\JJ	.	.	.	.
4A\	.	8f#/L	.	8dd\L	.	4A\	-ſon	4A\	-ſon	8f#\	.	8dd\	.	.	8d\L	8f#\L
.	.	8e/J	.	8cc#\J	.	.	.	.	.	8e\	-ſon	8cc#\	-ſon	.	8A\J	8e\J
16A\LL	.	4r	.	4r	.	4r	.	4r	.	4r	.	4r	.	.	4r	4r
16G\	.	.	.	.	.	.	.	.	.	.	.	.	.	.	.	.
16F#\	.	.	.	.	.	.	.	.	.	.	.	.	.	.	.	.
16E\JJ	.	.	.	.	.	.	.	.	.	.	.	.	.	.	.	.
!LO:LB:g=original	!	!LO:LB:g=original	!	!LO:LB:g=original	!	!LO:LB:g=original	!	!LO:LB:g=original	!	!LO:LB:g=original	!	!	!	!	!	!
=5	=5	=5	=5	=5	=5	=5	=5	=5	=5	=5	=5	=5	=5	=5	=5	=5
*	*	*	*	*	*	*2\right	*	*	*	*2\right	*	*2\right	*	*	*	*
!LO:TX:t=P:problem=mixed beam	!	!	!	!	!LO:DY:b:t=for	!	!	!	!	!	!	!	!	!	!	!
8D/L	.	4d/	.	4d/	f	2d\	Chriſ-	2A\	Chriſ-	2f#\	Chris-	2dd\	Chris-	.	4D/	4D/
8d\	.	.	.	.	.	.	.	.	.	.	.	.	.	.	.	.
8D/	.	4d/	.	4d/	.	.	.	.	.	.	.	.	.	.	4D/	4D/
8d\J	.	.	.	.	.	.	.	.	.	.	.	.	.	.	.	.
4D/	.	16d/LL	.	16d/LL	.	4d\	-te	4A\	-te	4f#\	-te	4dd\	-te	.	4D/	4D/
.	.	32e/L	.	32e/L	.	.	.	.	.	.	.	.	.	.	.	.
.	.	32f#/	.	32f#/	.	.	.	.	.	.	.	.	.	.	.	.
.	.	32g/	.	32g/	.	.	.	.	.	.	.	.	.	.	.	.
.	.	32a/	.	32a/	.	.	.	.	.	.	.	.	.	.	.	.
.	.	32b/	.	32b/	.	.	.	.	.	.	.	.	.	.	.	.
.	.	32cc#/JJJ	.	32cc#/JJJ	.	.	.	.	.	.	.	.	.	.	.	.
!	!	!LO:TX:t=P:problem=mixed beam	!	!LO:TX:t=P:problem=mixed beam	!	!	!	!	!	!	!	!	!	!	!	!
4r	.	8dd\L	.	8dd\L	.	8r	.	8r	.	8r	.	8r	.	.	4r	4r
.	.	8d/J	.	8f#/J	.	8D\	E-	8A\	E-	8d\	e-	8f#/	e-	.	.	.
=6	=6	=6	=6	=6	=6	=6	=6	=6	=6	=6	=6	=6	=6	=6	=6	=6
!	!	!	!	!	!	!	!	!	!	!	!	!	!	!	!LO:TX:a:t=2	!LO:TX:a:t=2
2r	.	8d/L	p	(8f#/L	.	2AA/	-lei-	2A\	-ley-	8d\L	-ley-	8f#/L	-ley-	.	0r	0r
.	.	8c#/	.	8e/)	.	.	.	.	.	8c#\J	.	8e/J	.	.	.	.
.	.	8c#/	.	(8e/|	.	.	.	.	.	8c#\	-ſon	8e/	-ſon	.	.	.
*	*	*	*	*	*	*	*	*	*	*	*	*	*ij	*	*	*
.	.	8e/J	.	8g/J)|	.	.	.	.	.	8e\	e-	8g/	e-	.	.	.
4r	.	8e/L	.	(8g/L	.	4D\	.	4A\	.	8e\L	-ley-	8g/L	-ley-	.	.	.
.	.	8d/	.	8f#/)	.	.	.	.	.	8d\J	.	8f#/J	.	.	.	.
8r	.	8d/	.	8f#/|	.	8D\	-ſon	8A\	-ſon	8d\	-ſon	8f#/	-ſon	.	.	.
*	*	*	*	*	*	*	*	*	*	*	*	*	*Xij	*	*	*
8AA/	.	8c#/J	.	8a/J|	.	8A\	E-	8e\	E-	8c#\	E-	8a\	E-	.	.	.
=7	=7	=7	=7	=7	=7	=7	=7	=7	=7	=7	=7	=7	=7	=7	=7	=7
4.E\	.	8c#/L	.	(8a/L	.	4E\	-lei-	2e\	-ley-	8c#/L	-ley-	8a\L	-ley-	.	.	.
.	.	8B/	.	8g#X/)	.	.	.	.	.	8B/J	.	8g#X\J	.	.	.	.
.	.	8B/	.	8g#/|	.	8E\	-ſon	.	.	8B/	-ſon	8g#\	-ſon	.	.	.
*	*	*	*	*	*	*	*ij	*	*	*	*	*	*ij	*	*	*
8G#X\	.	8d/J	.	8b/J|	.	8G#X\	E-	.	.	8d\	e-	8b\	E-	.	.	.
4.A\	.	8d/L	.	(8b\L	.	4A\	-lei-	4e\	.	8d\L	-ley-	8b\L	-ley-	.	.	.
.	.	8c#/	.	8a\)	.	.	.	.	.	8c#\J	.	8a\J	.	.	.	.
.	.	8c#/	.	8a\|	.	8A\	-ſon	8e\	-ſon	8c#\	-ſon	8a\	-ſon	.	.	.
*	*	*	*	*	*	*	*Xij	*	*	*	*	*	*Xij	*	*	*
8A\	.	8a/J	.	8cc#\J|	.	8A\	E-	8e\	E-	8a\	E-	8cc#\	E-	.	.	.
!	!	!	!	!	!	!	!	!	!	!	!	!LO:LB:g=original	!	!	!LO:LB:g=original	!LO:LB:g=original
=8	=8	=8	=8	=8	=8	=8	=8	=8	=8	=8	=8	=8	=8	=8	=8	=8
4.E\	.	8a/L	.	(8cc#\L	.	4e\	-lei-	2e\	-ley-	8a\L	-ley-	8cc#\L	-ley-	.	1e	1e
.	.	8g#X/	.	8b\)	.	.	.	.	.	8g#X\J	.	8b\J	.	.	.	.
.	.	8g#/	.	8b\|	.	8e\	-ſon	.	.	8g#\	-ſon	8b\	-ſon	.	.	.
8G#X\	.	8b/J	.	8dd\J|	.	8G#X\	E-	.	.	8b\	e-	8dd\	e-	.	.	.
!	!	!	!	!	!	!	!	!	!	!LO:LB:g=original	!	!	!	!	!	!
4.A\	.	8b/L	.	(8dd\L	.	4A\	-lei-	4e\	.	8b\L	-ley-	8dd\L	-ley-	.	.	.
.	.	8a/J	.	8cc#\)	.	.	.	.	.	8a\J	.	8cc#\J	.	.	.	.
.	.	4a/	.	8cc#\|	.	8A\	-ſon	8e\	-ſon	8a\	-ſon	8cc#\	-ſon	.	.	.
8c#\	.	.	.	8ee\J|	.	8c#\	Chris-	8e\	Chris-	8a\	Chriſ-	8ee\	Chris-	.	.	.
=9	=9	=9	=9	=9	=9	=9	=9	=9	=9	=9	=9	=9	=9	=9	=9	=9
*	*	*tremolo	*	*	*	*	*	*	*	*	*	*	*	*	*	*
8d\L	.	16a/LL	.	16ff#\LL	.	8d\L	-te	4d\	-te	4a\	-te	4ff#\	-te	.	4d\	4g\
.	.	16a/	.	16ff#\	.	.	.	.	.	.	.	.	.	.	.	.
8c#\	.	16a/	.	16ff#\	.	8c#\J	.	.	.	.	.	.	.	.	.	.
.	.	16a/JJ	.	16ff#\JJ	.	.	.	.	.	.	.	.	.	.	.	.
!	!	!	!	!	!	!LO:LB:g=original	!	!	!	!	!	!	!	!	!	!
8B\	.	16g#X/LL	.	16ddd\LL	.	8B\	au-	8d\	au-	8g#X\	au-	8ff#\	au-	.	8d\L	8f#\L
.	.	16g#/	.	16ff#\	.	.	.	.	.	.	.	.	.	.	.	.
8G#X\J	.	16g#/	.	16ddd\	.	8G#X\	-di	8d\	-di	8g#\	-di	8ff#\	-di	.	8d\J	8f#\J
.	.	16g#/JJ	.	16ff#\JJ	.	.	.	.	.	.	.	.	.	.	.	.
8c#\L	.	16g#/LL	.	16ee\LL	.	8c#\L	nos	4c#\	nos	4g#\	nos	4ee\	nos	.	4A/	4e\
.	.	16g#/	.	16ee\	.	.	.	.	.	.	.	.	.	.	.	.
8B\	.	16g#/	.	16ee\	.	8B\J	.	.	.	.	.	.	.	.	.	.
.	.	16g#/JJ	.	16ee\JJ	.	.	.	.	.	.	.	.	.	.	.	.
8A\	.	16f#/LL	.	16ccc#\LL	.	8A\L	Chris-	4c#\	Chriſ-	4f#\	Chris-	4ee\	Chris-	.	8A/L	8e\L
.	.	16f#/	.	16ee\	.	.	.	.	.	.	.	.	.	.	.	.
8F#\J	.	16f#/	.	16ccc#\	.	8F#\J	.	.	.	.	.	.	.	.	8A/J	8e\J
.	.	16f#/JJ	.	16ee\JJ	.	.	.	.	.	.	.	.	.	.	.	.
!	!	!	!	!LO:LB:g=original	!	!	!	!	!	!	!	!	!	!	!	!
=10	=10	=10	=10	=10	=10	=10	=10	=10	=10	=10	=10	=10	=10	=10	=10	=10
8B\L	.	16f#/LL	.	16dd\LL	.	8B\L	-te	4B\	-te	4f#\	-te	4dd\	-te	.	4e\	4e\
.	.	16f#/	.	16dd\	.	.	.	.	.	.	.	.	.	.	.	.
8A\	.	16f#/	.	16dd\	.	8A\J	.	.	.	.	.	.	.	.	.	.
.	.	16f#/JJ	.	16dd\JJ	.	.	.	.	.	.	.	.	.	.	.	.
8G#X\	.	16e/LL	.	16bb\LL	.	8G#X\L	ex-	4B\	Ex-	4e\	Ex-	4dd\	Ex-	.	8e\L	8e\L
.	.	16e/	.	16dd\	.	.	.	.	.	.	.	.	.	.	.	.
8E\J	.	16e/	.	16bb\	.	8E\J	.	.	.	.	.	.	.	.	8e\J	8e\J
.	.	16e/JJ	.	16dd\JJ	.	.	.	.	.	.	.	.	.	.	.	.
8A\L	.	16e/LL	.	16cc#\LL	.	8A\L	-au-	4A\	-au-	4e\	-au-	4cc#\	-au-	.	4A/	4e\
.	.	16e/	.	16cc#\	.	.	.	.	.	.	.	.	.	.	.	.
8G#\	.	16e/	.	16cc#\	.	8G#X\J	.	.	.	.	.	.	.	.	.	.
.	.	16e/JJ	.	16cc#\JJ	.	.	.	.	.	.	.	.	.	.	.	.
8F#\	.	16f#/LL	.	16aa\LL	.	8F#\L	-di	4A\	-di	4f#\	-di	4cc#\	-di	.	8A/L	8e\L
.	.	16f#/	.	16cc#\	.	.	.	.	.	.	.	.	.	.	.	.
8D#X\J	.	16f#/	.	16aa\	.	8D#X\J	.	.	.	.	.	.	.	.	8A/J	8e\J
.	.	16f#/JJ	.	16cc#\JJ	.	.	.	.	.	.	.	.	.	.	.	.
*	*	*Xtremolo	*	*	*	*	*	*	*	*	*	*	*	*	*	*
!LO:LB:g=original	!	!LO:LB:g=original	!	!	!	!	!	!LO:LB:g=original	!	!	!	!	!	!	!	!
=11	=11	=11	=11	=11	=11	=11	=11	=11	=11	=11	=11	=11	=11	=11	=11	=11
!	!	!	!	!	!	!	!	!	!	!	!	!	!	!	!LO:TX:a:t=P:problem=mixed beam	!
4E\	.	8a/L	.	8cc#\L	.	4E\	noſ	8A/L	noſ	4e\	noſ	8cc#\L	noſ	.	8A/L	8e\L
.	.	8g#X/J	.	8b\J	.	.	.	8G#X/J	.	.	.	8b\J	.	.	8e\J	8e\J
8r	.	8r	.	8r	.	8r	.	8r	.	8r	.	8r	.	.	4r	4r
8E\	.	8g#/	.	8ee\	p	8E\	Pa-	8B\	Pa-	8g#X\	Pa-	8ee\	Pa-	.	.	.
4F#\	.	4a/	.	(8ee\L	.	4F#\	-ter	8A\	-ter	4a\	-ter	8ee\L	-ter	.	2r	2r
.	.	.	.	8dd#X\J)	.	.	.	4r	.	.	.	8dd#X\J	.	.	.	.
8r	.	8r	.	8bb\L	f	8r	.	.	.	8r	.	8r	.	.	.	.
8G#X\	.	8b\	.	8ddn\J	.	8G#X\	de	8e\	de	8b\	de	8ddn\	de	.	.	.
=12	=12	=12	=12	=12	=12	=12	=12	=12	=12	=12	=12	=12	=12	=12	=12	=12
!	!	!	!	!	!	!	!	!	!	!	!	!	!	!	!LO:TX:a:t=1.	!LO:TX:a:t=1.
4A\	.	8b/L	.	8dd\L	p	8A\	Cae-	8e\	Cae-	8b\	Cae-	8dd\	Cae-	.	1r	1r
.	.	8a/J	.	8dd\J	.	8AA/	-lis	8e\	-lis	8a\	-lis	8cc#\	-lis	.	.	.
8r	.	8r	.	8aa\L	f	8r	.	8r	.	8r	.	8r	.	.	.	.
!	!	!	!	!	!	!	!	!	!	!	!	!LO:LB:g=original	!	!	!	!
8E\	.	8g#X/	.	8ee\J	.	8E\	De-	8B\	De-	8g#X\	De-	8ee\	De-	.	.	.
4F#\	.	4a/	.	8ee\L	p	4F#\	-us	4A\	-us	4a\	-us	8ee\L	-us	.	.	.
.	.	.	.	8dd#X\J	.	.	.	.	.	.	.	8dd#X\J	.	.	.	.
8r	.	8r	.	8bb\L	f	8r	.	8r	.	8r	.	8r	.	.	.	.
*	*	*	*	*	*	*	*	*	*	*	*	*	*ij	*	*	*
8G#X\	.	8b/	.	8ddn\J	.	8G#X\	De-	8e\	De-	8b\	De-	8ddn\	De-	.	.	.
!	!	!	!	!	!	!LO:LB:g=original	!	!	!	!LO:LB:g=original	!	!	!	!	!	!
=13	=13	=13	=13	=13	=13	=13	=13	=13	=13	=13	=13	=13	=13	=13	=13	=13
4A\	.	8b/L	.	8dd\L	p	4A\	-us	4e\	-us	8b\L	-us	8dd\L	-us	.	2r	2r
*	*	*	*	*	*	*	*	*	*	*	*	*	*Xij	*	*	*
.	.	8a/J	.	8cc#\J	.	.	.	.	.	8a\J	.	8cc#\J	.	.	.	.
8r	.	8r	.	8aa\L	.	8r	.	8r	.	8r	.	8r	.	.	.	.
8c#\	.	8cc#\	f	8ee\J	f	8A\	Mi-	8c#\	Mi-	8a\	Mi-	8ee\	Mi-	.	.	.
*	*	*tremolo	*	*	*	*	*	*	*	*	*	*	*	*	*	*
8D\L	.	16dd\LL	.	16ff#\LL	.	4d\	-ſe-	2d\	-ſe-	4a\	.	4ff#\	.	.	4d\	4f#\
.	.	16dd\	.	16ff#\	.	.	.	.	.	.	.	.	.	.	.	.
8d\	.	16dd\	.	16ff#\	.	.	.	.	.	.	.	.	.	.	.	.
.	.	16dd\JJ	.	16ff#\JJ	.	.	.	.	.	.	.	.	.	.	.	.
*	*	*	*	*tremolo	*	*	*	*	*	*	*	*	*	*	*	*
8B\	.	16b\LL	.	16gg#X\LL	.	4B\	.	.	.	4b\	-ſe-	4gg#X\	-ſe-	.	4e\	4g#X\
.	.	16b\	.	16gg#\	.	.	.	.	.	.	.	.	.	.	.	.
8e\J	.	16b\	.	16gg#\	.	.	.	.	.	.	.	.	.	.	.	.
.	.	16b\JJ	.	16gg#\JJ	.	.	.	.	.	.	.	.	.	.	.	.
=14	=14	=14	=14	=14	=14	=14	=14	=14	=14	=14	=14	=14	=14	=14	=14	=14
*	*	*2\right	*	*2\right	*	*	*	*	*	*	*	*	*	*	*	*2\right
8A\L	.	16cc#\LL	.	16aa\LL	.	8A\L	-re-	4e\	-re-	4cc#\	-re-	4aa\	-re-	.	2A/	2a\
.	.	16cc#\	.	16aa\	.	.	.	.	.	.	.	.	.	.	.	.
8c#\	.	16cc#\	.	16aa\	.	8c#\J	.	.	.	.	.	.	.	.	.	.
.	.	16cc#\	.	16aa\	.	.	.	.	.	.	.	.	.	.	.	.
8A\	.	16cc#\	.	16aa\	.	8A\L	-re	4c#\	-re	4cc#\	-re	4aa\	-re	.	.	.
.	.	16cc#\	.	16aa\	.	.	.	.	.	.	.	.	.	.	.	.
8F#\J	.	16cc#\	.	16aa\	.	8F#\J	.	.	.	.	.	.	.	.	.	.
.	.	16cc#\JJ	.	16aa\JJ	.	.	.	.	.	.	.	.	.	.	.	.
*2\right	*	*	*	*	*	*	*	*	*	*	*	*	*	*	*	*
*tremolo	*	*Xtremolo	*	*Xtremolo	*	*	*	*	*	*	*	*	*	*	*	*
8E\L	.	16e/LL	.	16cc#\LL	.	2E\	no-	2e\	no-	2a\	no-	2cc#\	no-	.	4A/	4a\
.	.	16cc#/	.	16aa\	.	.	.	.	.	.	.	.	.	.	.	.
8E\	.	16e/	.	16cc#\	.	.	.	.	.	.	.	.	.	.	.	.
.	.	16cc#/JJ	.	16aa\JJ	.	.	.	.	.	.	.	.	.	.	.	.
8E\	.	16e/LL	.	16cc#\LL	.	.	.	.	.	.	.	.	.	.	8A/L	8a\L
.	.	16cc#/	.	16aa\	.	.	.	.	.	.	.	.	.	.	.	.
8E\J	.	16e/	.	16cc#\	.	.	.	.	.	.	.	.	.	.	8A/J	8a\J
.	.	16cc#/JJ	.	16aa\JJ	.	.	.	.	.	.	.	.	.	.	.	.
!	!	!	!	!LO:LB:g=original	!	!	!	!	!	!	!	!	!	!	!	!
=15	=15	=15	=15	=15	=15	=15	=15	=15	=15	=15	=15	=15	=15	=15	=15	=15
8E\L	.	16e/LL	.	16b\LL	.	2E\	.	2e\	.	2g#X\	.	2b\	.	.	4e\	4g#X\
.	.	16b/	.	16gg#X\	.	.	.	.	.	.	.	.	.	.	.	.
8E\	.	16e/	.	16b\	.	.	.	.	.	.	.	.	.	.	.	.
.	.	16b/JJ	.	16gg#\JJ	.	.	.	.	.	.	.	.	.	.	.	.
8E\	.	16e/LL	.	16b\LL	.	.	.	.	.	.	.	.	.	.	8e\L	8g#\L
.	.	16b/	.	16gg#\	.	.	.	.	.	.	.	.	.	.	.	.
8E\J	.	16e/	.	16b\	.	.	.	.	.	.	.	.	.	.	8e\J	8g#\J
.	.	16b/JJ	.	16gg#\JJ	.	.	.	.	.	.	.	.	.	.	.	.
*Xtremolo	*	*	*	*	*	*	*	*	*	*	*	*	*	*	*	*
!LO:TX:t=P:problem=mixed beam	!	!	!	!LO:TX:t=P:problem=mixed beam	!	!	!	!	!	!	!	!	!	!	!	!
8AA/L	.	8cc#\L	.	8aa\L	.	4AA/	-bis	4e\	-bis	4a\	-bis	4cc#\	-bis	.	4A/	4a\
8A\	.	8a\J	.	8a/J	.	.	.	.	.	.	.	.	.	.	.	.
8AA/J	.	8r	.	8r	.	8r	.	8r	.	8r	.	8r	.	.	4r	4r
8r	.	8c#/	.	8e/	.	8AA/	Fi-	8A\	Fi-	8c#\	Fi-	8e/	Fi-	.	.	.
!	!	!	!	!	!	!	!	!	!	!	!	!	!	!	!	!LO:LB:g=original
=16	=16	=16	=16	=16	=16	=16	=16	=16	=16	=16	=16	=16	=16	=16	=16	=16
2AA/	p	8c#/L	.	8e/L	.	4AA/	-li	4A\	-li	8c#\L	-li	8e/L	-li	.	2r	2r
.	.	8d/	.	8f#/	.	.	.	.	.	8d\J	.	8f#/J	.	.	.	.
.	.	8d/	.	8f#/	.	4AA/	Re-	4A\	Re-	8d\L	Re-	8f#/L	Re-	.	.	.
.	.	8e/J	.	8g/J	.	.	.	.	.	8e\J	.	8g/J	.	.	.	.
!	!	!LO:LB:g=original	!	!	!	!	!	!LO:LB:g=original	!	!	!	!	!	!	!	!
4D\	f	32d/KLL	.	32f#/KLL	f	4D\	-dem-	4A\	-dem-	8d\L	-dem-	8f#/L	-dem-	.	4d\	4f#\
.	.	16.f#/	.	16.a/	.	.	.	.	.	.	.	.	.	.	.	.
.	.	32f#/K	.	32a/K	.	.	.	.	.	8f#\J	.	8g/J	.	.	.	.
.	.	16.a/JJ	.	16.dd/JJ	.	.	.	.	.	.	.	.	.	.	.	.
4r	.	32a\KLL	.	32dd\KLL	.	4D\	-ptor	4A\	-ptor	4f#\	-ptor	8g\L	-ptor	.	4r	4r
.	.	16.dd\	.	16.ff#\	.	.	.	.	.	.	.	.	.	.	.	.
.	.	32dd\K	.	32ff#\K	.	.	.	.	.	.	.	8dd\J	.	.	.	.
.	.	16.ff#\JJ	.	16.aa\JJ	.	.	.	.	.	.	.	.	.	.	.	.
!	!	!	!	!	!	!	!	!	!	!	!	!LO:LB:g=original	!	!	!LO:LB:g=original	!
=17	=17	=17	=17	=17	=17	=17	=17	=17	=17	=17	=17	=17	=17	=17	=17	=17
2AA/	p	8d#X/L	.	8f#/L	p	4BB/	mun-	4B\	mun-	8d#X\L	mun-	8f#/L	mun-	.	2r	2r
.	.	8e/	.	8g#X/	.	.	.	.	.	8e\J	.	8g#X/J	.	.	.	.
.	.	8f#/	.	8g#/	.	4BB/	-di	4B\	-di	8e\L	-di	8g#/L	-di	.	.	.
.	.	8f#/J	.	8a/J	.	.	.	.	.	8f#\J	.	8a/J	.	.	.	.
4D\	f	32e/KLL	.	32g#/KLL	.	4E\	De-	4B\	De-	4e\	De-	4g#/	De-	.	4e\	4e\
.	.	16.g/	.	16.b/	.	.	.	.	.	.	.	.	.	.	.	.
.	.	32g/K	.	32b/K	.	.	.	.	.	.	.	.	.	.	.	.
.	.	16.b/JJ	.	16.dd/JJ	.	.	.	.	.	.	.	.	.	.	.	.
4r	.	32b\KLL	.	32dd\KLL	.	4E\	-us	4B\	-us	4g#X\	-us	4ee\	-us	.	4r	4r
.	.	16.ee\	.	16.gg#X\	.	.	.	.	.	.	.	.	.	.	.	.
.	.	32ee\K	.	32gg#\K	.	.	.	.	.	.	.	.	.	.	.	.
.	.	16.gg\JJ	.	16.bb\JJ	.	.	.	.	.	.	.	.	.	.	.	.
!LO:LB:g=original	!	!	!	!	!	!	!	!	!	!	!	!	!	!	!	!
=18	=18	=18	=18	=18	=18	=18	=18	=18	=18	=18	=18	=18	=18	=18	=18	=18
2G#X\	.	16bb\LL	.	16ddd\LL	.	2G#X\	mi-	2e\	mi-	2b\	mi-	2dd\	mi-	.	4e\	4e\
.	.	16aa\	.	16ccc#\	.	.	.	.	.	.	.	.	.	.	.	.
.	.	16gg#X\	.	16bb\	.	.	.	.	.	.	.	.	.	.	.	.
.	.	16ff#\JJ	.	16aa\JJ	.	.	.	.	.	.	.	.	.	.	.	.
.	.	16ee\LL	.	16gg#X\LL	.	.	.	.	.	.	.	.	.	.	4r	4r
.	.	16dd\	.	16ff#\	.	.	.	.	.	.	.	.	.	.	.	.
.	.	16cc#\	.	16ee\	.	.	.	.	.	.	.	.	.	.	.	.
.	.	16b\JJ	.	16dd\JJ	.	.	.	.	.	.	.	.	.	.	.	.
2A\	.	32a\KLL	.	32cc#\KLL	.	2A\	-ſe-	2e\	-ſe-	2a\	-ſe-	2cc#\	-ſe-	.	4A/	4e\
.	.	16.cc#\	.	16.aa\	.	.	.	.	.	.	.	.	.	.	.	.
.	.	32b\K	.	32gg#X\K	.	.	.	.	.	.	.	.	.	.	.	.
.	.	16.cc#\JJ	.	16.aa\JJ	.	.	.	.	.	.	.	.	.	.	.	.
!	!	!	!	!LO:LB:g=original	!	!	!	!	!	!	!	!	!	!	!	!
.	.	32b\KLL	.	32gg#\KLL	.	.	.	.	.	.	.	.	.	.	8A/L	8e\L
.	.	16.cc#\	.	16.aa\	.	.	.	.	.	.	.	.	.	.	.	.
.	.	32b\K	.	32gg#\K	.	.	.	.	.	.	.	.	.	.	8A/J	8e\J
.	.	16.cc#\JJ	.	16.aa\JJ	.	.	.	.	.	.	.	.	.	.	.	.
!	!	!	!	!	!	!LO:LB:g=original	!	!	!	!LO:LB:g=original	!	!	!	!	!	!
=19	=19	=19	=19	=19	=19	=19	=19	=19	=19	=19	=19	=19	=19	=19	=19	=19
!LO:SIC:s:=:v:2G#	!	!	!	!	!	!LO:SIC:s:=:v:2G#	!	!	!	!	!	!	!	!	!	!
2G\	.	16bb\LL	.	16ddd\LL	.	2G\	-re-	2e\	-re-	2b\	-re-	2dd\	-re-	.	4e\	4e\
.	.	16aa\	.	16ccc#\	.	.	.	.	.	.	.	.	.	.	.	.
.	.	16gg#X\	.	16bb\	.	.	.	.	.	.	.	.	.	.	.	.
.	.	16ff#\JJ	.	16aa\JJ	.	.	.	.	.	.	.	.	.	.	.	.
.	.	16ee\LL	.	16gg#X\LL	.	.	.	.	.	.	.	.	.	.	4r	4r
.	.	16dd\	.	16ff#\	.	.	.	.	.	.	.	.	.	.	.	.
.	.	16cc#\	.	16ee\	.	.	.	.	.	.	.	.	.	.	.	.
.	.	16b\JJ	.	16dd\JJ	.	.	.	.	.	.	.	.	.	.	.	.
2A\	.	32a\KLL	.	32cc#\KLL	.	2A\	-re	2e\	-re	2a\	-re	2cc#\	-re	.	4A/	4e\
.	.	16.cc#\	.	16.aa\	.	.	.	.	.	.	.	.	.	.	.	.
.	.	32b\K	.	32gg#X\K	.	.	.	.	.	.	.	.	.	.	.	.
.	.	16.cc#\JJ	.	16.aa\JJ	.	.	.	.	.	.	.	.	.	.	.	.
!	!	!LO:LB:g=original	!	!	!	!	!	!	!	!	!	!	!	!	!	!
.	.	32b\KLL	.	32gg#\KLL	.	.	.	.	.	.	.	.	.	.	8A/L	8e\L
.	.	16.cc#\	.	16.aa\	.	.	.	.	.	.	.	.	.	.	.	.
.	.	32b\K	.	32gg#\K	.	.	.	.	.	.	.	.	.	.	8A/J	8e\J
.	.	16.cc#\JJ	.	16.aa\JJ	.	.	.	.	.	.	.	.	.	.	.	.
=20	=20	=20	=20	=20	=20	=20	=20	=20	=20	=20	=20	=20	=20	=20	=20	=20
8F#\L	.	8cc#\L	.	8aa\L	.	8F#\L	no-	2f#\	no-	2a\	no-	2cc#\	no-	.	4A/	4e\
8A\	.	8a\	.	8cc#\	.	8A\J	.	.	.	.	.	.	.	.	.	.
8F#\	.	8a\	.	8cc#\	.	8F#\L	.	.	.	.	.	.	.	.	4r	4r
8D#X\J	.	8a\J	.	8cc#\J	.	8D#X\J	.	.	.	.	.	.	.	.	.	.
.	.	.	.	.	.	.	.	.	.	.	.	8qqdd/	.	.	.	.
4E\	.	8a/L	.	8cc#\L	.	4E\	-bis	4e\	-bis	8a\	.	8cc#\	.	.	8A/L	8e\L
.	.	8g#X/J	.	8b\J	.	.	.	.	.	8g#X\	-bis	8b\	-bis	.	8e/J	8e\J
8r	.	8r	.	8r	.	8r	.	8r	.	8r	.	8r	.	.	4r	4r
8E\	.	8g#/	p	8ee\	p	16E\	ſpi-	16B\	ſpi-	16g#\	ſpi-	16ee\	ſpi-	.	.	.
.	.	.	.	.	.	16E\	-ri-	16B\	-ri-	16g#\	-ri-	16ee\	-ri-	.	.	.
=21	=21	=21	=21	=21	=21	=21	=21	=21	=21	=21	=21	=21	=21	=21	=21	=21
!	!	!	!	!	!	!	!	!	!	!	!	!	!	!	!LO:TX:a:t=2.	!LO:TX:a:t=2
4F#\	.	4a/	.	(8ee\L	.	4F#\	-tus	4A\	-tus	4a\	-tus	8ee\L	-tus	.	0r	0r
.	.	.	.	8dd#X\J)	.	.	.	.	.	.	.	8dd#X\J	.	.	.	.
8r	.	8r	.	8bb\L	f	8r	.	8r	.	8r	.	8r	.	.	.	.
8G#X\	.	8b/L	.	8ddn\J	.	8G#X\	ſan-	8e\	ſan-	8b\	ſan-	8ddn\	ſan-	.	.	.
4A\	.	8b/	.	8dd\L	p	4A\	-cti	4e\	-cti	8b\	.	8dd\L	.	.	.	.
.	.	8a/J	.	8cc#\J	.	.	.	.	.	8a\	-cti	8cc#\J	-cti	.	.	.
8r	.	8r	.	8aa\L	f	8r	.	8r	.	8r	.	8r	.	.	.	.
*	*	*	*	*	*	*	*ij	*	*ij	*	*	*	*	*	*	*
8E\	.	8g/	.	8ee\J	p	8E\	ſan-	8B\	ſan-	8g#X\	ſan-	8ee\	ſan-	.	.	.
=22	=22	=22	=22	=22	=22	=22	=22	=22	=22	=22	=22	=22	=22	=22	=22	=22
4F#\	.	4a/	.	8ee\L	.	4F#\	-cti	4A\	-cti	4a\	-cti	8ee\L	-cti	.	.	.
*	*	*	*	*	*	*	*Xij	*	*Xij	*	*	*	*	*	*	*
.	.	.	.	8dd#X\J	.	.	.	.	.	.	.	8dd#X\J	.	.	.	.
8r	.	8r	.	8bb\L	f	8r	.	8r	.	8r	.	8r	.	.	.	.
!	!	!	!	!	!	!	!	!	!	!	!	!LO:LB:g=original	!	!	!	!
8G#X\	.	8b/L	.	8ddn\J	.	8G#X\	De-	8e\	De-	8b\	De-	8ddn\	De-	.	.	.
4A\	.	8b/	.	8dd\L	p	4A\	-us	4e\	-us	8b\L	-us	8dd\L	-us	.	.	.
.	.	8a/J	.	8cc#\	.	.	.	.	.	8a\J	.	8cc#\J	.	.	.	.
8r	.	8r	.	8aa\	f	8r	.	8r	.	8r	.	8r	.	.	.	.
8A\	.	8cc#\	.	8ee\J	.	8A\	mi-	8c#\	mi-	8a\	mi-	8ee\	mi-	.	.	.
!	!	!	!	!LO:LB:g=original	!	!LO:LB:g=original	!	!LO:LB:g=original	!	!	!	!	!	!	!	!
=23	=23	=23	=23	=23	=23	=23	=23	=23	=23	=23	=23	=23	=23	=23	=23	=23
!LO:TX:t=P:problem=mixed beam	!	!	!	!	!	!	!	!	!	!	!	!	!	!	!	!
*	*	*tremolo	*	*	*	*	*	*	*	*	*	*	*	*	*	*
8D/L	f	16dd\LL	.	16ff#\LL	.	4d\	.	4d\	.	4a\	.	4ff#\	.	.	4d\	4f#\
.	.	16dd\	.	16ff#\	.	.	.	.	.	.	.	.	.	.	.	.
8d\	.	16dd\	.	16ff#\	.	.	.	.	.	.	.	.	.	.	.	.
.	.	16dd\JJ	.	16ff#\JJ	.	.	.	.	.	.	.	.	.	.	.	.
*	*	*	*	*tremolo	*	*	*	*	*	*	*	*	*	*	*	*
8B\	.	16b\LL	.	16gg#X\LL	.	4B\	-ſe-	4d\	-ſe-	4b\	-ſe-	4gg#X\	-ſe-	.	4e\	4g#X\
.	.	16b\	.	16gg#\	.	.	.	.	.	.	.	.	.	.	.	.
8e\J	.	16b\	.	16gg#\	.	.	.	.	.	.	.	.	.	.	.	.
.	.	16b\JJ	.	16gg#\JJ	.	.	.	.	.	.	.	.	.	.	.	.
8A\L	.	16cc#\LL	.	16aa\LL	.	8A\L	-re-	4e\	-re-	4cc#\	-re-	4aa\	-re-	.	2A/	2a\
.	.	16cc#\	.	16aa\	.	.	.	.	.	.	.	.	.	.	.	.
8c#\	.	16cc#\	.	16aa\	.	8c#\J	.	.	.	.	.	.	.	.	.	.
.	.	16cc#\JJ	.	16aa\	.	.	.	.	.	.	.	.	.	.	.	.
8A\	.	16cc#\LL	.	16aa\	.	8A\L	-re	4c#\	-re	4cc#\	-re	4aa\	-re	.	.	.
.	.	16cc#\	.	16aa\	.	.	.	.	.	.	.	.	.	.	.	.
8F#\J	.	16cc#\	.	16aa\	.	8F#\J	.	.	.	.	.	.	.	.	.	.
.	.	16cc#\JJ	.	16aa\JJ	.	.	.	.	.	.	.	.	.	.	.	.
*	*	*Xtremolo	*	*Xtremolo	*	*	*	*	*	*	*	*	*	*	*	*
=24	=24	=24	=24	=24	=24	=24	=24	=24	=24	=24	=24	=24	=24	=24	=24	=24
*tremolo	*	*	*	*	*	*	*	*	*	*	*	*	*	*	*	*
8E\L	.	16e/LL	.	16cc#\LL	.	2E\	no-	2e\	no-	2a\	no-	2cc#\	no-	.	4A/	4a\
.	.	16cc#/	.	16aa\	.	.	.	.	.	.	.	.	.	.	.	.
8E\	.	16e/	.	16cc#\	.	.	.	.	.	.	.	.	.	.	.	.
.	.	16cc#/JJ	.	16aa\JJ	.	.	.	.	.	.	.	.	.	.	.	.
8E\	.	16e/LL	.	16cc#\LL	.	.	.	.	.	.	.	.	.	.	8A/L	8a\L
.	.	16cc#/	.	16aa\	.	.	.	.	.	.	.	.	.	.	.	.
8E\J	.	16e/	.	16cc#\	.	.	.	.	.	.	.	.	.	.	8A/J	8a\J
.	.	16cc#/JJ	.	16aa\JJ	.	.	.	.	.	.	.	.	.	.	.	.
!	!	!	!	!	!	!	!	!	!	!LO:LB:g=original	!	!	!	!	!	!LO:LB:g=original
8E\L	.	16e/LL	.	16b\LL	.	2E\	.	2e\	.	2g#X\	.	2b\	.	.	4e\	4g#X\
.	.	16b/	.	16gg#X\	.	.	.	.	.	.	.	.	.	.	.	.
8E\	.	16e/	.	16b\	.	.	.	.	.	.	.	.	.	.	.	.
.	.	16b/JJ	.	16gg#\JJ	.	.	.	.	.	.	.	.	.	.	.	.
8E\	.	16e/LL	.	16b\LL	.	.	.	.	.	.	.	.	.	.	8e\L	8g#\L
.	.	16b/	.	16gg#\	.	.	.	.	.	.	.	.	.	.	.	.
8E\J	.	16e/	.	16b\	.	.	.	.	.	.	.	.	.	.	8e\J	8g#\J
.	.	16b/JJ	.	16gg#\JJ	.	.	.	.	.	.	.	.	.	.	.	.
*Xtremolo	*	*	*	*	*	*	*	*	*	*	*	*	*	*	*	*
!LO:LB:g=original	!	!LO:LB:g=original	!	!	!	!	!	!	!	!	!	!	!	!	!	!
=25	=25	=25	=25	=25	=25	=25	=25	=25	=25	=25	=25	=25	=25	=25	=25	=25
!	!	!	!	!LO:TX:t=P:problem=mixed beam	!	!	!	!	!	!	!	!	!	!	!	!
4AA/	.	16a/LL	.	16a/LL	.	4AA/	-bis	4e\	-bis	4a\	-bis	4cc#\	-bis	.	4A/	4a\
.	.	16cc#/	.	(16aa\	.	.	.	.	.	.	.	.	.	.	.	.
.	.	16cc#/	.	16aa\	.	.	.	.	.	.	.	.	.	.	.	.
.	.	16b/JJ	.	16gg#X\JJ)	.	.	.	.	.	.	.	.	.	.	.	.
4r	.	(16b/LL	.	(16gg#\LL	.	4r	.	4r	.	4r	.	4r	.	.	4r	4r
.	.	16a/	.	16ff#\	.	.	.	.	.	.	.	.	.	.	.	.
.	.	16a/	.	16ff#\	.	.	.	.	.	.	.	.	.	.	.	.
.	.	16g#X/JJ)	.	16ee\JJ)	.	.	.	.	.	.	.	.	.	.	.	.
8A\L	.	(16g#/LL	.	(16ee\LL	.	2r	.	2r	.	2r	.	2r	.	.	2r	2r
.	.	16a/	.	16ff#\	.	.	.	.	.	.	.	.	.	.	.	.
8G#X\	.	16a/	.	16ff#\	.	.	.	.	.	.	.	.	.	.	.	.
.	.	16g#/JJ)	.	16ee\JJ)	.	.	.	.	.	.	.	.	.	.	.	.
8F#\	.	(16g#/LL	.	(16ee\LL	.	.	.	.	.	.	.	.	.	.	.	.
.	.	16f#/	.	16dd\	.	.	.	.	.	.	.	.	.	.	.	.
8E\J	.	16f#/	.	16dd\	.	.	.	.	.	.	.	.	.	.	.	.
.	.	16e/JJ)	.	16cc#\JJ)	.	.	.	.	.	.	.	.	.	.	.	.
!	!	!	!	!	!	!	!	!	!	!	!	!	!	!	!LO:LB:g=original	!
=26	=26	=26	=26	=26	=26	=26	=26	=26	=26	=26	=26	=26	=26	=26	=26	=26
!	!	!	!	!	!	!	!	!LO:TX:a:t=1.	!	!LO:TX:a:t=1.	!	!LO:TX:a:t=1.	!	!	!LO:TX:a:t=1.	!LO:TX:a:t=1.
8F#\L	.	(16e/LL	.	(16cc#\LL	.	1r	.	1r	.	1r	.	1r	.	.	1r	1r
.	.	16f#/	.	16dd\	.	.	.	.	.	.	.	.	.	.	.	.
8E\	.	16f#/	.	16dd\	.	.	.	.	.	.	.	.	.	.	.	.
.	.	16e/JJ)	.	16cc#\JJ)	.	.	.	.	.	.	.	.	.	.	.	.
8D\	.	(16e/LL	.	(16cc#\LL	.	.	.	.	.	.	.	.	.	.	.	.
.	.	16d/	.	16b\	.	.	.	.	.	.	.	.	.	.	.	.
8C#\J	.	16d/	.	16b\	.	.	.	.	.	.	.	.	.	.	.	.
.	.	16c#/JJ)	.	16a\JJ)	.	.	.	.	.	.	.	.	.	.	.	.
8E\L	.	4c#/	.	8a/L	.	.	.	.	.	.	.	.	.	.	.	.
8F#\	.	.	.	8c#/	.	.	.	.	.	.	.	.	.	.	.	.
8D\	.	8f#/L	.	8B/	.	.	.	.	.	.	.	.	.	.	.	.
8E\J	.	8B/J	.	8g#X/J	.	.	.	.	.	.	.	.	.	.	.	.
!	!	!	!	!LO:LB:g=original	!	!	!	!	!	!	!	!	!	!	!	!
=27	=27	=27	=27	=27	=27	=27	=27	=27	=27	=27	=27	=27	=27	=27	=27	=27
!LO:TX:t=P:problem=mixed beam	!	!	!	!	!	!	!	!	!	!	!	!	!	!	!	!
8AA/L	.	4a 4e 4c#/	.	4a/	.	8A\	-ſan-	8e\	-ſan-	8c#\	-ſan-	8a\	-ſan-	.	4A/	4A/
8A\	.	.	.	.	.	8A\	-cta	8e\	-cta	8c#\	-cta	8a\	-cta	.	.	.
8AA/	.	4a/	.	4a/	.	8A\	Tri-	8e\	Tri-	8c#\	Tri-	8a\	Tri-	.	4A/	4A/
8A\J	.	.	.	.	.	8A\	-ni-	8e\	-ni-	8c#\	-ni-	8a\	-ni-	.	.	.
4AA/	.	16a\LL	.	16a\LL	.	4A\	-tas	4e\	-tas	4c#\	-tas	4a\	-tas	.	4A/	4A/
.	.	(32b\L	.	32b\L	.	.	.	.	.	.	.	.	.	.	.	.
.	.	32cc#\	.	32cc#\	.	.	.	.	.	.	.	.	.	.	.	.
.	.	32dd\	.	32dd\	.	.	.	.	.	.	.	.	.	.	.	.
.	.	32ee\	.	32ee\	.	.	.	.	.	.	.	.	.	.	.	.
.	.	32ff#\	.	32ff#\	.	.	.	.	.	.	.	.	.	.	.	.
.	.	32gg#X\JJJ)	.	32gg#X\JJJ	.	.	.	.	.	.	.	.	.	.	.	.
!	!	!LO:TX:t=P:problem=mixed beam	!	!	!	!	!	!	!	!	!	!	!	!	!	!
4r	.	8aa\L	.	8aa\L	.	8r	.	8r	.	8r	.	8r	.	.	4r	4r
!	!	!	!	!	!	!	!	!	!	!	!	!	!	!LO:DY:rj:b	!	!
.	.	8a/J	p	8cc#\J	p	8A\	U-	8e\	U-	8a\	U-	8cc#\	U-	p	.	.
!	!	!	!	!	!	!	!	!	!	!	!	!LO:LB:g=original	!	!	!	!
=28	=28	=28	=28	=28	=28	=28	=28	=28	=28	=28	=28	=28	=28	=28	=28	=28
!	!	!	!	!	!	!	!	!	!	!	!	!	!	!	!LO:TX:a:t=5	!LO:TX:a:t=5
2r	.	(8a/L	.	(8cc#\L	.	4E\	.	4e\	.	8a\L	.	8cc#\L	.	.	00r	00r
.	.	8g#X/)	.	8b\	.	.	.	.	.	8g#X\	.	8b\	.	.	.	.
.	.	8g#/|	.	8b\|	.	8E\L	-nus	4e\	-nus	8g#\J	.	8b\J	.	.	.	.
.	.	8b/J|	.	8dd\J)|	.	8G#X\J	.	.	.	8b\	-nus	8dd\	-nus	.	.	.
!	!	!	!	!	!	!LO:LB:g=original	!	!	!	!	!	!	!	!	!	!
4r	.	(8b/L	.	(8dd\L	.	4A\	De-	4e\	De-	8b\L	De-	8dd\L	De-	.	.	.
.	.	8a/)	.	8cc#\)	.	.	.	.	.	8a\	.	8cc#\J	.	.	.	.
8r	.	8a/|	.	8cc#\|	.	8A\	-us	8e\	-us	8a\J	-us	8cc#\	-us	.	.	.
8F#\	.	8a/J|	.	8ee\J|	.	8F#\	u-	8c#\	u-	8a\	u-	8ff#\	u-	.	.	.
!	!	!LO:LB:g=original	!	!	!	!	!	!	!	!	!	!	!	!	!	!
=29	=29	=29	=29	=29	=29	=29	=29	=29	=29	=29	=29	=29	=29	=29	=29	=29
4.C#/	.	(8a/L	.	(8ff#\L	.	4.c#\	.	4c#\	.	8a\L	.	8ff#\L	.	.	.	.
.	.	8g#X/)	.	8ee#X\)	.	.	.	.	.	8g#X\	.	8ee#X\	.	.	.	.
.	.	8g#/|	.	8ee#\|	.	.	.	4c#\	-nus	8g#\J	.	8ee#\J	.	.	.	.
8E#X\	.	8b/J|	.	8gg#X\J|	.	8E#X\	-nus	.	.	8b\	-nus	8gg#X\	-nus	.	.	.
!	!	!	!	!	!	!	!	!LO:LB:g=original	!	!	!	!	!	!	!	!
4.F#\	.	(8b/L	.	(8gg#\L	.	4F#\	De-	4c#\	De-	8b\L	De-	8gg#\L	De-	.	.	.
.	.	8a/)	.	8ff#\)	.	.	.	.	.	8a\	.	8ff#\J	.	.	.	.
.	.	8a/|	.	8ff#\|	.	8F#\	-us	8c#\	-us	8a\J	-us	8ff#\	-us	.	.	.
8A\	.	8a/J|	.	8cc#\J|	.	8A\	mi-	8c#\	mi-	8a\	mi-	8cc#\	mi-	.	.	.
!	!	!	!	!	!	!	!	!	!	!LO:LB:g=original	!	!	!	!	!	!
=30	=30	=30	=30	=30	=30	=30	=30	=30	=30	=30	=30	=30	=30	=30	=30	=30
*	*	*tremolo	*	*	*	*	*	*	*	*	*	*	*	*	*	*
8B\L	.	16f#/LL	.	16dd\LL	.	8B\L	-ſe-	2B\	-ſe-	4f#\	.	4dd\	.	.	.	.
.	.	16f#/	.	16dd\	.	.	.	.	.	.	.	.	.	.	.	.
8A\	.	16f#/	.	16dd\	.	8A\	.	.	.	.	.	.	.	.	.	.
.	.	16f#/JJ	.	16dd\JJ	.	.	.	.	.	.	.	.	.	.	.	.
8G#X\	.	16e/LL	.	16bb\LL	.	8G#X\	.	.	.	4e\	-ſe-	4dd\	-se-	.	.	.
.	.	16e/	.	16dd\	.	.	.	.	.	.	.	.	.	.	.	.
8E\J	.	16e/	.	16bb\	.	8E\J	.	.	.	.	.	.	.	.	.	.
.	.	16e/JJ	.	16dd\JJ	.	.	.	.	.	.	.	.	.	.	.	.
8A\L	.	16e/LL	.	16cc#\LL	.	8A\L	-re-	4A\	-re-	4e\	-re-	4cc#\	-re-	.	.	.
.	.	16e/	.	16cc#\	.	.	.	.	.	.	.	.	.	.	.	.
8G#\	.	16e/	.	16cc#\	.	8G#\J	.	.	.	.	.	.	.	.	.	.
.	.	16e/JJ	.	16cc#\JJ	.	.	.	.	.	.	.	.	.	.	.	.
8F#\	.	16d#X/LL	.	16aa\LL	.	8F#\L	-re	4A\	-re	4d#X\	-re	4cc#\	-re	.	.	.
.	.	16d#/	.	16cc#\	.	.	.	.	.	.	.	.	.	.	.	.
8D#X\J	.	16d#/	.	16aa\	.	8D#X\J	.	.	.	.	.	.	.	.	.	.
.	.	16d#/JJ	.	16cc#\JJ	.	.	.	.	.	.	.	.	.	.	.	.
!LO:LB:g=original	!	!	!	!	!	!	!	!	!	!	!	!	!	!	!	!
=31	=31	=31	=31	=31	=31	=31	=31	=31	=31	=31	=31	=31	=31	=31	=31	=31
8G#X\L	.	16d/LL	.	16b\LL	.	8G#X\L	no-	2G#X/	no-	4d\	no-	2b\	no-	.	.	.
.	.	16d/	.	16b\	.	.	.	.	.	.	.	.	.	.	.	.
8F#\	.	16d/	.	16b\	.	8F#\J	.	.	.	.	.	.	.	.	.	.
.	.	16d/JJ	.	16b\JJ	.	.	.	.	.	.	.	.	.	.	.	.
8E#X\	.	16c#/LL	.	16gg#X\LL	.	8E#X\L	.	.	.	4c#\	.	.	.	.	.	.
.	.	16c#/	.	16b\	.	.	.	.	.	.	.	.	.	.	.	.
8D\J	.	16c#/	.	16gg#\	.	8C#\J	.	.	.	.	.	.	.	.	.	.
.	.	16c#/JJ	.	16b\JJ	.	.	.	.	.	.	.	.	.	.	.	.
!	!	!	!	!LO:LB:g=original	!	!	!	!	!	!	!	!	!	!	!	!
8F#\L	.	16c#/LL	.	16a/LL	.	8F#\L	.	2F#/	.	2c#\	.	2a\	.	.	.	.
.	.	16c#/	.	16a/	.	.	.	.	.	.	.	.	.	.	.	.
8G#X\	.	16c#/	.	16a/	.	8G#X\	.	.	.	.	.	.	.	.	.	.
.	.	16c#/JJ	.	16a/JJ	.	.	.	.	.	.	.	.	.	.	.	.
8A\	.	16c#/LL	.	16ff#\LL	.	8A\	.	.	.	.	.	.	.	.	.	.
.	.	16c#/	.	16a\	.	.	.	.	.	.	.	.	.	.	.	.
8F#\J	.	16c#/	.	16ff#\	.	8F#\J	.	.	.	.	.	.	.	.	.	.
.	.	16c#/JJ	.	16a\JJ	.	.	.	.	.	.	.	.	.	.	.	.
*	*	*Xtremolo	*	*	*	*	*	*	*	*	*	*	*	*	*	*
!	!	!LO:LB:g=original	!	!	!	!LO:LB:g=original	!	!	!	!	!	!	!	!	!	!
=32	=32	=32	=32	=32	=32	=32	=32	=32	=32	=32	=32	=32	=32	=32	=32	=32
4C#/	.	8f#/L	.	(8a/L	.	4c#\	.	4c#\	-bis	8f#\L	.	8a\L	.	.	1r	1r
.	.	8e#X/	.	8g#X/)	.	.	.	.	.	8e#X\J	.	8g#X\J	.	.	.	.
8C#/L	.	8e#/	.	8g#/|	.	8C#/	-bis	8c#\	mi	8e#\	-bis	8g#\	-bis	.	.	.
8E#X/J	.	8cc#/J	.	8cc#/J|	.	8E#X\	mi-	8c#\	-ſe-	8g#X\	mi-	8cc#\	mi-	.	.	.
!	!	!	!	!	!	!	!	!	!	!	!	!LO:LB:g=original	!	!	!	!
*	*	*tremolo	*	*	*	*	*	*	*	*	*	*	*	*	*	*
8F#\L	.	16cc#\LL	.	16ff#\LL	.	4F#\	.	2c#\	-re-	4a\	.	2cc#\	.	.	.	.
.	.	16cc#\	.	16cc#\	.	.	.	.	.	.	.	.	.	.	.	.
8F#\	.	16cc#\	.	16cc#\	.	.	.	.	.	.	.	.	.	.	.	.
.	.	16cc#\	.	16ff#\JJ	.	.	.	.	.	.	.	.	.	.	.	.
8E#X\	.	16cc#\	.	16gg#X\LL	.	4E#X\	-ſe-	.	.	4g#\	-ſe-	.	.	.	.	.
.	.	16cc#\	.	16cc#\	.	.	.	.	.	.	.	.	.	.	.	.
8E#\J	.	16cc#\	.	16cc#\	.	.	.	.	.	.	.	.	.	.	.	.
.	.	16cc#\JJ	.	16gg#\JJ	.	.	.	.	.	.	.	.	.	.	.	.
=33	=33	=33	=33	=33	=33	=33	=33	=33	=33	=33	=33	=33	=33	=33	=33	=33
!	!	!	!	!	!	!	!	!	!	!	!	!	!	!	!LO:N:vis=2	!LO:N:vis=2
8F#\L	.	16cc#\LL	.	16aa\LL	.	4F#\	-re	2c#\	-re	4a\	-re-	2cc#\	-ſe-	.	4r	2r
.	.	16cc#\	.	16cc#\	.	.	.	.	.	.	.	.	.	.	.	.
8F#\	.	16cc#\	.	16cc#\	.	.	.	.	.	.	.	.	.	.	.	.
.	.	16cc#\	.	16aa\JJ	.	.	.	.	.	.	.	.	.	.	.	.
8En\	.	16cc#\	.	16aa#X\LL	.	4En\	-re	.	.	4a#X\	-re	.	.	.	4r	.
.	.	16cc#\	.	16cc#\	.	.	.	.	.	.	.	.	.	.	.	.
8E\J	.	16cc#\	.	16cc#\	.	.	.	.	.	.	.	.	.	.	.	.
.	.	16cc#\JJ	.	16aa#\JJ	.	.	.	.	.	.	.	.	.	.	.	.
*	*	*Xtremolo	*	*	*	*	*	*	*	*	*	*	*	*	*	*
8D\L	.	8dd\L	.	16.bb\LL	.	4D\	mi-	4f#\	mi-	4b\	no-	4dd\	-re-	.	8r	8r
.	.	.	.	32ff#\JK	.	.	.	.	.	.	.	.	.	.	.	.
8F#\	.	8dd\J	.	8ff#\J	.	.	.	.	.	.	.	.	.	.	16F#/LL	16f#\LL
.	.	.	.	.	.	.	.	.	.	.	.	.	.	.	16F#/JJ	16f#\JJ
8B\	.	4dd\	.	4ff#\	.	8B\	-ſe-	8f#\	.	8b\	.	8dd\	-re	.	4F#/	4f#\
8d\J	.	.	.	.	.	8d\	.	8d\	-ſe-	8b\	.	8ff#\	mi-	.	.	.
=34	=34	=34	=34	=34	=34	=34	=34	=34	=34	=34	=34	=34	=34	=34	=34	=34
8e\L	.	(16dd\LL	.	(16ff#\LL	.	8e\L	-re-	8d\L	-re-	4g\	-biſ	8ff#\L	-ſe-	.	4F#/	4f#\
.	.	16cc#\)	.	16ee\)	.	.	.	.	.	.	.	.	.	.	.	.
8c#\	.	16cc#\|	.	16ee\|	.	8c#\J	.	8c#\J	.	.	.	8ee\J	.	.	.	.
.	.	16cc#\JJ|	.	16ee\JJ|	.	.	.	.	.	.	.	.	.	.	.	.
8d\	.	(16cc#\LL	.	(16ee\LL	.	8d\	.	8c#\	.	8f#\	mi-	8ee\	-re-	.	4r	4r
.	.	16b\)	.	16dd\	.	.	.	.	.	.	.	.	.	.	.	.
8B\J	.	16b\|	.	16dd\)|	.	8B\	-re	8B\	-re	8f#\	-ſe-	8dd\	-re	.	.	.
.	.	16b\JJ|	.	16dd\JJ|	.	.	.	.	.	.	.	.	.	.	.	.
!LO:TX:t=P:problem=mixed beam	!	!	!	!	!	!	!	!	!	!	!	!	!	!	!	!
8c#\L	.	(16b/LL	.	(16dd\LL	.	8c#\L	no-	8B\L	no-	4e\	-re-	8dd\L	no-	.	2r	2r
.	.	16a#X/)	.	16cc#\	.	.	.	.	.	.	.	.	.	.	.	.
8A#X\	.	(16a#/	.	16cc#\)|	.	8A#X\J	.	8A#X\J	.	.	.	8cc#\	.	.	.	.
.	.	16a#/JJ)	.	16cc#\JJ|	.	.	.	.	.	.	.	.	.	.	.	.
*	*	*tremolo	*	*	*	*	*	*	*	*	*	*	*	*	*	*
8B\	.	16f#/LL	.	(16cc#\LL	.	8B\L	.	4f#\	.	4d\	-re	8cc#\	.	.	.	.
.	.	16f#/	.	16b\	.	.	.	.	.	.	.	.	.	.	.	.
8D/J	.	16f#/	.	16b\)|	.	8D\J	.	.	.	.	.	8b\J	.	.	.	.
.	.	16f#/JJ	.	16b\JJ|	.	.	.	.	.	.	.	.	.	.	.	.
*	*	*Xtremolo	*	*	*	*	*	*	*	*	*	*	*	*	*	*
!	!	!LO:LB:g=original	!	!	!	!	!	!LO:LB:g=original	!	!	!	!	!	!	!	!
=35	=35	=35	=35	=35	=35	=35	=35	=35	=35	=35	=35	=35	=35	=35	=35	=35
8E\L	.	4c#/	.	8c#/	.	8E\L	.	4c#\	.	4g\	no-	4.b\	.	.	4F#/	4f#\
8G\	.	.	.	4b\	.	8G\J	.	.	.	.	.	.	.	.	.	.
8F#\	.	8d/L	.	.	.	4F#\	.	8d\L	.	4f#\	.	.	.	.	8F#/L	8f#\L
8F#\J	.	8c#/J	.	8a#X\	.	.	.	8c#\J	.	.	.	8a#X\	.	.	8F#/J	8f#\J
!	!	!	!	!LO:LB:g=original	!	!LO:LB:g=original	!	!	!	!	!	!	!	!	!	!
!	!	!	!	!LO:TX:t=P:problem=mixed beam	!	!	!	!	!	!	!	!	!	!	!	!
8BB/L	.	8d/L	.	8b\L	.	4BB/	-bis	4d\	-bis	4f#\	-bis	4b\	-bis	.	4F#/	4f#\
8B\J	.	8B/J	.	8B/J	.	.	.	.	.	.	.	.	.	.	.	.
16An\LL	.	4r	.	4r	.	4r	.	4r	.	4r	.	4r	.	.	4r	4r
16G#X\	.	.	.	.	.	.	.	.	.	.	.	.	.	.	.	.
16F#\	.	.	.	.	.	.	.	.	.	.	.	.	.	.	.	.
16E\JJ	.	.	.	.	.	.	.	.	.	.	.	.	.	.	.	.
!LO:LB:g=original	!	!	!	!	!	!	!	!	!	!LO:LB:g=original	!	!	!	!	!	!
=36	=36	=36	=36	=36	=36	=36	=36	=36	=36	=36	=36	=36	=36	=36	=36	=36
!LO:TX:t=P:problem=mixed beam	!	!	!	!	!	!	!	!	!	!	!	!	!	!	!	!
8D/L	.	4d/	.	4d/	.	4d\	ſan-	4A\	ſan-	4f#\	ſan-	4dd\	ſan-	.	4D/	4d\
8d\	.	.	.	.	.	.	.	.	.	.	.	.	.	.	.	.
8D/	.	4d/	.	4d/	.	8d\	-cta	8A\	-cta	8f#\	-cta	8dd\	-cta	.	4D/	4d\
8d\J	.	.	.	.	.	8d\	Ma-	8A\	Ma-	8f#\	Ma-	8dd\	Ma-	.	.	.
4D/	.	16d/LL	.	16d/LL	.	8d\	-ri-	8A\	-ri-	8f#\	-ri-	8dd\	-ri-	.	4D/	4d\
.	.	(32e/L	.	32e/L	.	.	.	.	.	.	.	.	.	.	.	.
.	.	32f#/	.	32f#/	.	.	.	.	.	.	.	.	.	.	.	.
.	.	32g/	.	32g/	.	8d\	-a	8A\	-a	8f#\	-a	8dd\	-a	.	.	.
.	.	32a/	.	32a/	.	.	.	.	.	.	.	.	.	.	.	.
.	.	32b/	.	32b/	.	.	.	.	.	.	.	.	.	.	.	.
.	.	32cc#/JJJ)	.	32cc#/JJJ	.	.	.	.	.	.	.	.	.	.	.	.
!	!	!LO:TX:t=P:problem=mixed beam	!	!LO:TX:t=P:problem=mixed beam	!	!	!	!	!	!	!	!	!	!	!	!
4r	.	8dd\L	.	8dd\L	.	8r	.	4r	.	8r	.	8r	.	.	4r	4r
.	.	8d/J	.	8f#/J	.	8D\	O-	.	.	8d\	O-	8f#/	O-	.	.	.
!	!	!	!	!	!	!	!	!	!	!	!	!	!	!	!	!LO:LB:g=original
=37	=37	=37	=37	=37	=37	=37	=37	=37	=37	=37	=37	=37	=37	=37	=37	=37
2r	.	8d/L	.	(8f#/L	.	2AA/	.	2A\	O-	8d\L	.	8f#/L	.	.	2r	2r
.	.	8c#/	.	8e/)	.	.	.	.	.	8c#\J	.	8e/J	.	.	.	.
.	.	8c#/	.	8e/|	.	.	.	.	.	8c#\	-ra	8e/	-ra	.	.	.
.	.	8e/J	.	8g/J|	.	.	.	.	.	8e\	pro	8g/	pro	.	.	.
!	!	!LO:TX:t=P:problem=mixed beam	!	!	!	!	!	!	!	!	!	!	!	!	!	!
!	!	!	!	!	!	!	!	!	!	!	!	!LO:LB:g=original	!	!	!	!
4r	.	8e/L	.	(8g/L	.	4D\	.	4A\	.	8e\L	no-	8g/L	no-	.	4r	4r
.	.	8d/	.	8f#/)	.	.	.	.	.	8d\J	.	8f#/J	.	.	.	.
8r	.	8d/	.	8f#/|	.	8D\	-ra	8A\	-ra	8d\	-bis	8f#/	-bis	.	8r	8r
!	!	!	!	!	!	!	!	!	!	!	!	!LO:TX:a:t=P:problem=belka przez kreskę	!	!	!	!
8d\	.	8dd\J	.	8ff#\J|	.	8d\	pro	8d\	pro	8a\	o-	8ff#\L	o-	.	8d\	8f#\
!	!	!	!	!	!	!	!	!	!	!	!	!	!	!	!LO:LB:g=original	!
=38	=38	=38	=38	=38	=38	=38	=38	=38	=38	=38	=38	=38	=38	=38	=38	=38
4.A\	.	(8dd\L	.	(8ff#\L	.	4A\	no-	8d\L	.	4a\	.	8ff#\	.	.	8d\L	8f#\L
.	.	8cc#\)	.	8ee\)	.	.	.	8c#\J	.	.	.	8ee\J	.	.	8A\	8e\
.	.	8cc#\|	.	8ee\|	.	8A\	-biſ	8c#\	ra	8a\	-ra	8ee\	-ra	.	8A\	8e\
8c#\	.	8ee\J|	.	8gg\J|	.	8c#\	pro	8e\	pro	8a\	pro	8gg\	pro	.	8e\J	8g\J
4.d\	.	(8ee\L	.	(8gg\L	.	4d\	no-	8e\L	no-	4a\	no-	8gg\L	no-	.	8e\L	8g\L
.	.	8dd\)	.	8ff#\)	.	.	.	8d\J	.	.	.	8ff#\J	.	.	8d\J	8f#\J
.	.	8dd\|	.	8ff#\|	.	8d\	-biſ	8d\	bis	8a\	-bis	8ff#\	-bis	.	4d\	4f#\
8F#\	.	8ff#\J|	.	8aa\J|	.	8F#\	pro	8f#\	pro	8f#\	o-	8aa\	o-	.	.	.
=39	=39	=39	=39	=39	=39	=39	=39	=39	=39	=39	=39	=39	=39	=39	=39	=39
4G\	.	(16ff#\LL	.	(16aa\LL	.	8G\	no-	8f#\	no-	8b\	-ra	8aa\	-ra	.	2r	2r
.	.	16ee\	.	16gg\)	.	.	.	.	.	.	.	.	.	.	.	.
.	.	16ee\	.	(16gg\	.	8G\	.	8e\	-bis	8b\	pro	16gg\LL	pro	.	.	.
.	.	16dd\JJ)	.	16ff#\JJ)	.	.	.	.	.	.	.	16ff#\JJ	.	.	.	.
!	!	!	!	!	!	!LO:LB:g=original	!	!LO:LB:g=original	!	!	!	!	!	!	!	!
8G\L	.	(16b/LL	.	(16ff#\LL	.	8G\L	.	8d\L	no-	16b\LL	no-	16ff#\LL	no-	.	.	.
.	.	16g/	.	16ee\)	.	.	.	.	.	16g\	.	16ee\	.	.	.	.
8G#X\J	.	16g/	.	(16ee\	.	8G#X\J	.	8B\J	.	16g\	.	16ee\	.	.	.	.
.	.	16f#/JJ)	.	16dd\JJ)	.	.	.	.	.	16f#\JJ	.	16dd\JJ	.	.	.	.
4A\	.	8f#/L	.	8dd\L	.	4A\	-bis	4B\	-bis	8f#\	.	8dd\L	.	.	8d\L	8f#\L
.	.	8e/J	.	8cc#\J	.	.	.	.	.	8e\	-bis	8cc#\J	-bis	.	8A\J	8e\J
8r	.	8r	.	8r	.	8r	.	8r	.	8r	.	8r	.	.	4r	4r
!	!	!	!	!	!	!	!	!	!	!LO:LB:g=original	!	!	!	!	!	!
8AA/	.	8c#/	.	8a/	.	8AA/	ſan-	8e\	ſan-	8c#\	ſan-	8a\	ſan-	.	.	.
=40	=40	=40	=40	=40	=40	=40	=40	=40	=40	=40	=40	=40	=40	=40	=40	=40
!	!	!	!	!	!	!	!	!	!	!	!	!	!	!	!LO:TX:a:t=2	!LO:TX:a:t=2.
4BB/	.	4d/	.	(8a/L	.	4BB/	-cta	4d\	-cta	4d\	-cta	8a\L	-cta	.	0r	0r
.	.	.	.	8g#X/J)	.	.	.	.	.	.	.	8g#X\J	.	.	.	.
!	!	!	!	!LO:TX:t=P:problem=mixed beam	!	!	!	!	!	!	!	!	!	!	!	!
8r	.	8r	.	8ee\L|	f	8r	.	8r	.	8r	.	8r	.	.	.	.
8C#/	.	8e/L	.	8gn/J|	.	8C#/	De-	8A\	De-	8e\	De-	8gn/	De-	.	.	.
!	!	!	!	!LO:LB:g=original	!	!	!	!	!	!	!	!	!	!	!	!
4D/	.	8e/	.	8g/L	p	4D\	-i	4A\	-i	8e\L	-i	8g/L	-i	.	.	.
.	.	8d/J	.	8f#/J	.	.	.	.	.	8d\J	.	8f#/J	.	.	.	.
8r	.	8r	.	8dd\L	f	8r	.	8r	.	8r	.	8r	.	.	.	.
!	!	!LO:LB:g=original	!	!	!	!	!	!	!	!	!	!LO:LB:g=original	!	!	!	!
8AA/	.	8c#/	.	8a\J	.	8AA/	ſan-	8d\	ſan-	8c#\	ſan-	8a\	ſan-	.	.	.
=41	=41	=41	=41	=41	=41	=41	=41	=41	=41	=41	=41	=41	=41	=41	=41	=41
4BB/	.	4d/	.	8a/L	p	4BB/	-cta	4d\	-cta	4d\	-cta	8a\L	-cta	.	.	.
.	.	.	.	8g#X/J	.	.	.	.	.	.	.	8g#X\J	.	.	.	.
!	!	!	!	!LO:TX:t=P:problem=mixed beam	!	!	!	!	!	!	!	!	!	!	!	!
8r	.	8r	.	8ee\L	f	8r	.	8r	.	8r	.	8r	.	.	.	.
8C#/	.	8e/L	.	8gn/J	.	8C#/	De-	8A\	De-	8e\	De-	8gn\	De-	.	.	.
4D\	.	8e/	.	8g/L	p	4D\	-i	4A\	-i	8e\L	.	8g\L	.	.	.	.
.	.	8d/J	.	8f#/J	.	.	.	.	.	8d\J	-i	8f#\J	-i	.	.	.
8r	.	8r	.	8dd\L	f	8r	.	8r	.	8r	.	8r	.	.	.	.
8D\	.	8f#/	.	8a\J	.	8D\	Ge-	8e\	Ge-	8f#\	Ge-	8a\	Ge-	.	.	.
=42	=42	=42	=42	=42	=42	=42	=42	=42	=42	=42	=42	=42	=42	=42	=42	=42
!LO:TX:t=P:problem=mixed beam	!	!	!	!LO:TX:t=P:problem=mixed beam	!	!	!	!	!	!	!	!	!	!	!	!
8GG/L	.	16g/LL	f	16b/LL	.	4G\	-ni-	4d\	-ni-	4g\	-ni-	4b\	-ni-	.	4D/	4d\
.	.	16g/	.	16bb\	.	.	.	.	.	.	.	.	.	.	.	.
8G\	.	16g/	.	16bb\	.	.	.	.	.	.	.	.	.	.	.	.
.	.	16g/JJ	.	16bb\JJ	.	.	.	.	.	.	.	.	.	.	.	.
*	*	*tremolo	*	*	*	*	*	*	*	*	*	*	*	*	*	*
!	!	!	!	!LO:TX:t=P:problem=mixed beam	!	!	!	!	!	!	!	!	!	!	!	!
8AA/	.	16e/LL	.	16cc#/LL	.	8E\	-trix	8e\	-trix	8g\	-trix	8cc#\	-trix	.	4A/	4e\
.	.	16e/	.	16ccc#\	.	.	.	.	.	.	.	.	.	.	.	.
8A\J	.	16e/	.	16ccc#\	.	8E\	o-	8e\	o-	8g\	o-	8cc#\	o-	.	.	.
.	.	16e/JJ	.	16ccc#\JJ	.	.	.	.	.	.	.	.	.	.	.	.
!LO:LB:g=original	!	!LO:TX:t=P:problem=mixed beam	!	!	!	!	!	!	!	!	!	!	!	!	!	!
*	*	*	*	*tremolo	*	*	*	*	*	*	*	*	*	*	*2\right	*
8D\L	.	16f#\LL	.	16ddd\LL	.	8D\L	-ra	4f#\	-ra	4a\	-ra	4dd\	-ra	.	2d\	2f#\
.	.	16ff#\	.	16ddd\	.	.	.	.	.	.	.	.	.	.	.	.
8F#\	.	16ff#\	.	16ddd\	.	8F#\J	.	.	.	.	.	.	.	.	.	.
.	.	16ff#\JJ	.	16ddd\JJ	.	.	.	.	.	.	.	.	.	.	.	.
8D\	.	16ff#\LL	.	16ddd\LL	.	8D/L	pro	4f#\	pro	4b\	pro	4dd\	pro	.	.	.
.	.	16ff#\	.	16ddd\	.	.	.	.	.	.	.	.	.	.	.	.
8BB\J	.	16ff#\	.	16ddd\	.	8BB/J	.	.	.	.	.	.	.	.	.	.
.	.	16ff#\JJ	.	16ddd\JJ	.	.	.	.	.	.	.	.	.	.	.	.
*	*	*Xtremolo	*	*Xtremolo	*	*	*	*	*	*	*	*	*	*	*	*
!	!	!	!	!	!	!LO:LB:g=original	!	!	!	!	!	!	!	!	!	!
=43	=43	=43	=43	=43	=43	=43	=43	=43	=43	=43	=43	=43	=43	=43	=43	=43
!LO:TX:t=P:problem=mixed beam	!	!	!	!	!	!	!	!	!	!	!	!	!	!	!	!
8AA/L	.	16a\LL	.	16ff#\LL	.	2AA/	no-	2A/	no-	2f#\	no-	2dd\	no-	.	4d\	4f#\
.	.	16ff#\	.	16ddd\	.	.	.	.	.	.	.	.	.	.	.	.
8A\	.	16a\	.	16ff#\	.	.	.	.	.	.	.	.	.	.	.	.
.	.	16ff#\JJ	.	16ddd\JJ	.	.	.	.	.	.	.	.	.	.	.	.
8A\	.	16a\LL	.	16ff#\LL	.	.	.	.	.	.	.	.	.	.	8d\L	8f#\L
.	.	16ff#\	.	16ddd\	.	.	.	.	.	.	.	.	.	.	.	.
8A\J	.	16a\	.	16ff#\	.	.	.	.	.	.	.	.	.	.	8d\J	8f#\J
.	.	16ff#\JJ	.	16ddd\JJ	.	.	.	.	.	.	.	.	.	.	.	.
*tremolo	*	*	*	*	*	*	*	*	*	*	*	*	*	*	*	*
8A\L	.	16a\LL	.	16ee\LL	.	2AA/	.	2A/	.	2e\	.	2cc#\	.	.	4A/	4e\
.	.	16ee\	.	16ccc#\	.	.	.	.	.	.	.	.	.	.	.	.
8A\	.	16a\	.	16ee\	.	.	.	.	.	.	.	.	.	.	.	.
.	.	16ee\JJ	.	16ccc#\JJ	.	.	.	.	.	.	.	.	.	.	.	.
8A\	.	16a\LL	.	16ee\LL	.	.	.	.	.	.	.	.	.	.	8A/L	8e\L
.	.	16ee\	.	16ccc#\	.	.	.	.	.	.	.	.	.	.	.	.
8A\J	.	16a\	.	16ee\	.	.	.	.	.	.	.	.	.	.	8A/J	8e\J
.	.	16ee\JJ	.	16ccc#\JJ	.	.	.	.	.	.	.	.	.	.	.	.
*Xtremolo	*	*	*	*	*	*	*	*	*	*	*	*	*	*	*	*
=44	=44	=44	=44	=44	=44	=44	=44	=44	=44	=44	=44	=44	=44	=44	=44	=44
4D\	.	8ff#\L	.	8ddd\L	.	4D\	-bis	4A\	-bis	4f#\	-bis	4dd\	-bis	.	8F#/L	8d\L
.	.	8dd\J	.	8dd\J	.	.	.	.	.	.	.	.	.	.	8F#/J	8d\J
8r	.	8r	.	8r	.	8r	.	8r	.	8r	.	8r	.	.	4r	4r
8AA/	.	8c#/	.	8a/	p	8AA/	ſan-	8e\	ſan-	8c#\	ſan-	8a\	ſan-	.	.	.
4BB/	.	4d/	.	8a/L	.	4BB/	-cta	4d\	-cta	4d\	-cta	8a\L	-cta	.	2r	2r
.	.	.	.	8g#X/J	.	.	.	.	.	.	.	8g#X\J	.	.	.	.
!	!	!	!	!LO:TX:t=P:problem=mixed beam	!	!	!	!	!	!	!	!	!	!	!	!
8r	.	8r	.	8ee\L	f	8r	.	8r	.	8r	.	8r	.	.	.	.
!	!	!	!	!	!	!	!	!LO:LB:g=original	!	!	!	!	!	!	!	!
8C#/	.	8e/	.	8gn/J	.	8C#/	De-	8A\	Vir-	8e\	Vir-	8gn\	Vir-	.	.	.
!	!	!	!	!LO:LB:g=original	!	!	!	!	!	!	!	!	!	!	!LO:LB:g=original	!
=45	=45	=45	=45	=45	=45	=45	=45	=45	=45	=45	=45	=45	=45	=45	=45	=45
!	!	!	!	!	!	!	!	!	!	!	!	!	!	!	!LO:TX:a:t=1.	!LO:TX:a:t=1
4D/	.	8e/L	.	8g/L	p	4D\	-i	4A\	-go	8e\L	-go	8g\L	-go	.	1r	1r
.	.	8d/J	.	8f#/J	.	.	.	.	.	8d\J	.	8f#\J	.	.	.	.
8r	.	8r	.	8dd\L	f	8r	.	8r	.	8r	.	8r	.	.	.	.
!	!	!	!	!	!	!	!	!	!	!	!	!LO:LB:g=original	!	!	!	!
8AA/	.	8c#/	.	8a\J	.	8AA/	ſan-	8e\	ſan-	8c#\	ſan-	8a\	ſan-	.	.	.
!	!	!	!	!	!	!	!	!	!	!LO:LB:g=original	!	!	!	!	!	!
4BB/	.	4d/	.	8a/L	p	4BB/	-cta	4d\	-cta	4d\	-cta	8a\L	-cta	.	.	.
.	.	.	.	8g#X/J	.	.	.	.	.	.	.	8g#X\J	.	.	.	.
!	!	!	!	!LO:TX:t=P:problem=mixed beam	!	!	!	!	!	!	!	!	!	!	!	!
8r	.	8r	.	8ee\L	f	8r	.	8r	.	8r	.	8r	.	.	.	.
8C#/	.	8e/	.	8gn/J	.	8C#/	vi-	8A\	Vir-	8e\	Vir-	8gn\	Vir-	.	.	.
!	!	!LO:LB:g=original	!	!	!	!	!	!	!	!	!	!	!	!	!	!
=46	=46	=46	=46	=46	=46	=46	=46	=46	=46	=46	=46	=46	=46	=46	=46	=46
!	!	!	!	!LO:TX:t=P:problem=mixed beam	!	!	!	!	!	!	!	!	!	!	!	!
4D\	.	8e/L	.	8g/L	p	4D\	-go	4A\	-go	8e\L	-go	8g\L	-go	.	2r	2r
.	.	8d/J	.	8f#/	.	.	.	.	.	8d\J	.	8f#\J	.	.	.	.
8r	.	8r	.	8dd\	f	8r	.	8r	.	8r	.	8r	.	.	.	.
8D\	.	8f#/	.	8a\J	.	8D\	vir-	8d\	Vir-	8f#\	Vir-	8a\	Vir-	.	.	.
!LO:TX:t=P:problem=mixed beam	!	!	!	!LO:TX:t=P:problem=mixed beam	!	!	!	!	!	!	!	!	!	!	!	!
8GG/L	.	16g/LL	f	16b/LL	.	4G\	-gi-	4d\	-gi-	4g\	-gi-	4b\	-gi-	.	4D/	4d\
.	.	16g/	.	16bb\	.	.	.	.	.	.	.	.	.	.	.	.
8G\	.	16g/	.	16bb\	.	.	.	.	.	.	.	.	.	.	.	.
.	.	16g/JJ	.	16bb\JJ	.	.	.	.	.	.	.	.	.	.	.	.
*	*	*tremolo	*	*	*	*	*	*	*	*	*	*	*	*	*	*
!	!	!	!	!LO:TX:t=P:problem=mixed beam	!	!	!	!	!	!	!	!	!	!	!	!
8E\	.	16e/LL	.	16cc#/LL	.	8E\	-num	8e\	-n(um)	8g\	-num	8cc#\	-n(um)	.	4A/	4e\
.	.	16e/	.	16ccc#\	.	.	.	.	.	.	.	.	.	.	.	.
8A\J	.	16e/	.	16ccc#\	.	8E\	o-	8e\	O-	8g\	O-	8cc#\	O-	.	.	.
.	.	16e/JJ	.	16ccc#\JJ	.	.	.	.	.	.	.	.	.	.	.	.
!	!	!	!	!	!	!	!	!	!	!	!	!	!	!	!LO:LB:g=original	!
=47	=47	=47	=47	=47	=47	=47	=47	=47	=47	=47	=47	=47	=47	=47	=47	=47
!	!	!LO:TX:t=P:problem=mixed beam	!	!	!	!	!	!	!	!	!	!	!	!	!	!
*	*	*	*	*tremolo	*	*	*	*	*	*	*	*	*	*	*	*
8D\L	.	16f#/LL	.	16ddd\LL	.	8D\L	.	4f#\	-ra	4a\	-ra	4dd\	-ra	.	2d\	2f#\
.	.	16ff#\	.	16ddd\	.	.	.	.	.	.	.	.	.	.	.	.
8F#\	.	16ff#\	.	16ddd\	.	8F#\J	.	.	.	.	.	.	.	.	.	.
.	.	16ff#\JJ	.	16ddd\JJ	.	.	.	.	.	.	.	.	.	.	.	.
8D\	.	16ff#\LL	.	16ddd\LL	.	8D\	-ra	8f#\	o-	8a\	pro	8dd\	pro	.	.	.
.	.	16ff#\	.	16ddd\	.	.	.	.	.	.	.	.	.	.	.	.
8BB\J	.	16ff#\	.	16ddd\	.	8BB/	pro	8f#\	-ra	8b\	no-	8dd\	no-	.	.	.
.	.	16ff#\JJ	.	16ddd\JJ	.	.	.	.	.	.	.	.	.	.	.	.
*	*	*Xtremolo	*	*Xtremolo	*	*	*	*	*	*	*	*	*	*	*	*
!	!	!	!	!	!	!LO:LB:g=original	!	!	!	!	!	!	!	!	!	!
!LO:TX:t=P:problem=mixed beam	!	!	!	!	!	!	!	!	!	!	!	!	!	!	!	!
8AA/L	.	16a\LL	.	16ff#\LL	.	4AA/	no-	2A/	pro	2f#\	.	2dd\	.	.	4d\	4f#\
.	.	16ff#\	.	16ddd\	.	.	.	.	.	.	.	.	.	.	.	.
8A\	.	16a\	.	16ff#\	.	.	.	.	.	.	.	.	.	.	.	.
.	.	16ff#\JJ	.	16ddd\JJ	.	.	.	.	.	.	.	.	.	.	.	.
8A\	.	16a\LL	.	16ff#\LL	.	4A\	.	.	.	.	.	.	.	.	8d\L	8f#\L
.	.	16ff#\	.	16ddd\	.	.	.	.	.	.	.	.	.	.	.	.
8A\J	.	16a\	.	16ff#\	.	.	.	.	.	.	.	.	.	.	8d\J	8f#\J
.	.	16ff#\JJ	.	16ddd\JJ	.	.	.	.	.	.	.	.	.	.	.	.
=48	=48	=48	=48	=48	=48	=48	=48	=48	=48	=48	=48	=48	=48	=48	=48	=48
2A\	.	16a\LL	.	16ee\LL	.	2A\	.	2A/	no-	2e\	.	2dd\	.	.	4A/	4e\
.	.	16ee\	.	16ccc#\	.	.	.	.	.	.	.	.	.	.	.	.
.	.	16a\	.	16ee\	.	.	.	.	.	.	.	.	.	.	.	.
.	.	16ee\JJ	.	16ccc#\JJ	.	.	.	.	.	.	.	.	.	.	.	.
.	.	16a\LL	.	16ee\LL	.	.	.	.	.	.	.	.	.	.	8A/L	8e\L
.	.	16ee\	.	16ccc#\	.	.	.	.	.	.	.	.	.	.	.	.
.	.	16a\	.	16ee\	.	.	.	.	.	.	.	.	.	.	8A/J	8e\J
.	.	16ee\JJ	.	16ccc#\JJ	.	.	.	.	.	.	.	.	.	.	.	.
4D/	.	8ff#\L	.	8ddd\L	.	4D\	-bis	4A/	-bis	4f#\	-bis	4dd\	-bis	.	4F#/	4d\
.	.	16ff#\L	.	16ddd\L	.	.	.	.	.	.	.	.	.	.	.	.
.	.	16ee\JJ	.	16ccc#\JJ	.	.	.	.	.	.	.	.	.	.	.	.
4r	.	16ee\LL	.	16ccc#\LL	.	4r	.	4r	.	4r	.	4r	.	.	4r	4r
.	.	16dd\	.	16bb\	.	.	.	.	.	.	.	.	.	.	.	.
.	.	16dd\	.	16bb\	.	.	.	.	.	.	.	.	.	.	.	.
.	.	16cc#\JJ	.	16aa\JJ	.	.	.	.	.	.	.	.	.	.	.	.
!LO:LB:g=original	!	!	!	!LO:LB:g=original	!	!	!	!	!	!	!	!	!	!	!	!
=49	=49	=49	=49	=49	=49	=49	=49	=49	=49	=49	=49	=49	=49	=49	=49	=49
!	!	!	!	!	!	!	!	!	!	!	!	!	!	!	!LO:TX:a:t=1.	!LO:TX:a:t=1.
8d\L	.	(16cc#\LL	.	16aa\LL	.	00r	.	0r	.	0r	.	0r	.	.	1r	1r
.	.	16dd\	.	16bb\	.	.	.	.	.	.	.	.	.	.	.	.
8c#\	.	16dd\	.	16bb\	.	.	.	.	.	.	.	.	.	.	.	.
.	.	16cc#\JJ)	.	16aa\JJ	.	.	.	.	.	.	.	.	.	.	.	.
8B\	.	(16cc#\LL	.	16aa\LL	.	.	.	.	.	.	.	.	.	.	.	.
.	.	16b\	.	16gg\	.	.	.	.	.	.	.	.	.	.	.	.
8A\J	.	16b\	.	16gg\	.	.	.	.	.	.	.	.	.	.	.	.
.	.	16a\JJ)	.	16ff#\JJ	.	.	.	.	.	.	.	.	.	.	.	.
8B\L	.	16a/LL	.	16ff#\LL	.	.	.	.	.	.	.	.	.	.	.	.
.	.	16b/	.	16gg\	.	.	.	.	.	.	.	.	.	.	.	.
8A\	.	16b/	.	16gg\	.	.	.	.	.	.	.	.	.	.	.	.
.	.	16a/JJ	.	16ff#\JJ	.	.	.	.	.	.	.	.	.	.	.	.
8G\	.	16a/LL	.	16ff#\LL	.	.	.	.	.	.	.	.	.	.	.	.
.	.	16g/	.	16ee\	.	.	.	.	.	.	.	.	.	.	.	.
8F#\J	.	16g/	.	16ee\	.	.	.	.	.	.	.	.	.	.	.	.
.	.	16f#/JJ	.	16dd\JJ	.	.	.	.	.	.	.	.	.	.	.	.
!	!	!LO:LB:g=original	!	!	!	!	!	!	!	!	!	!	!	!	!	!
=50	=50	=50	=50	=50	=50	=50	=50	=50	=50	=50	=50	=50	=50	=50	=50	=50
!	!	!	!	!LO:TX:a:t=P:problem=mixed beam	!	!	!	!	!	!	!	!	!	!	!	!
8A\L	.	4f#/	.	8dd\L	.	.	.	.	.	.	.	.	.	.	4F#/	4d\
8B\	.	.	.	8f#/	.	.	.	.	.	.	.	.	.	.	.	.
8G\	.	8e/L	.	8e/	.	.	.	.	.	.	.	.	.	.	4A/	4e\
8A\J	.	8a/J	.	8cc#/J	.	.	.	.	.	.	.	.	.	.	.	.
4D\	.	4f#/	.	4dd 4d/	.	.	.	.	.	.	.	.	.	.	4F#/	4d\
4r	.	4r	.	4r	.	.	.	.	.	.	.	.	.	.	4r	4r
=51	=51	=51	=51	=51	=51	=51	=51	=51	=51	=51	=51	=51	=51	=51	=51	=51
!LO:TX:t=P:problem=nadmiarowe pauzy w Basso	!	!LO:TX:t=P:problem=nadmiarowe pauzy w Basso	!	!LO:TX:t=P:problem=nadmiarowe pauzy w Basso	!	!	!	!LO:TX:t=P:problem=nadmiarowe pauzy w Basso	!	!LO:TX:t=P:problem=nadmiarowe pauzy w Basso	!	!LO:TX:t=P:problem=nadmiarowe pauzy w Basso	!	!	!LO:TX:t=P:problem=nadmiarowe pauzy w Basso	!LO:TX:t=P:problem=nadmiarowe pauzy w Basso
1ryy	.	1ryy	.	1ryy	.	.	.	1ryy	.	1ryy	.	1ryy	.	.	1ryy	1ryy
=52	=52	=52	=52	=52	=52	=52	=52	=52	=52	=52	=52	=52	=52	=52	=52	=52
1ryy	.	1ryy	.	1ryy	.	.	.	1ryy	.	1ryy	.	1ryy	.	.	1ryy	1ryy
==	==	==	==	==	==	==	==	==	==	==	==	==	==	==	==	==
*-	*-	*-	*-	*-	*-	*-	*-	*-	*-	*-	*-	*-	*-	*-	*-	*-
!!!system-decoration: [(s1,s2)][(s3,s4,s5,s6)][(s7,s8)]s9
!!!RDF**dynam: p = p.
!!!RDF**dynam: f = f.
!!!RDF**kern: | = vertical stroke
!!!EED: Leszek Kubiak
!!!EEV: 2020-12-29
!!!ENC: Tomasz Grochalski
!!!END: 2020-12-05
